favicons/favicon.svg

<svg xmlns="http://www.w3.org/2000/svg" width="32" height="32" viewBox="0 0 32 32" fill="none">
  <path fill-rule="evenodd" clip-rule="evenodd" d="M27.562 26L17.17 8.928l2.366-3.888L17.828 4L16 7.005L14.17 4l-1.708 1.04l2.366 3.888L4.438 26H2v2h28v-2zM16 10.85L25.22 26H17v-8h-2v8H6.78z" fill="#222" />
</svg>

<svg width="32" height="32" viewBox="0 0 32 32" fill="none" xmlns="http://www.w3.org/2000/svg">
<rect width="32" height="32" fill="#B057DA"/>
<path fill-rule="evenodd" clip-rule="evenodd" d="M27.562 26L17.17 8.928L19.536 5.04L17.828 4L16 7.005L14.17 4L12.462 5.04L14.828 8.928L4.438 26H2V28H30V26H27.562ZM16 10.85L25.22 26H17V18H15V26H6.78L16 10.85Z" fill="#222222"/>
</svg>
